X: 19
T: Sean Bui
Z: ceolachan
S: https://thesession.org/tunes/235#setting49101
R: jig
M: 6/8
L: 1/8
K: Dmaj
|:D3 AFA|ABB AFA|D D2 AFA|Bec dAF|
DGB AFA|~B2 d AFA|dfd ecA|1 ~B2 c dAF:|2 ~B2 c dA/B/c||
|:d2 f ecA|dcB AFA|dfd ecA|
[1 ~B2 c dA/B/c|d2 f ecA|Bcd AFA|D D2 AFA|~B2 c dA/B/c:|
[2 ~B2 c de/f/g|afd gec|dcB AFA|D3 AFA|~B2 c dAF||

